!!!!SEGMENT: pl-kk--kk-i-382--094-007_richling--msza-na-3-glosy-agnus-dei.krn
!!!cenid: 18xx:1611
!!!COM: Richling
!!!COM-rismid: pe50045950
!!!CDT:
!!!CNT:
!!!OPR: Msza na 3 głosy
!!!OTL: Agnus Dei
!!!OMV: 007
!!!PDT:
!!!AGN: Sacred; Mass
!!!SMS-siglum: PL-Kk
!!!SMS-shelfmark: Kk.I.382
!!!SMS-shelfwork: 094-007 M
!!!SMS-variant:
!!!SMS-altvar:
!!!NIFC-rismid: 1001142972
!!!URL-scan: http://repozytorium.nifc.pl/skany/pl-kk-nut--i-382
!!!ONB-nifc: S/T1 od 0062, A/B1 od 0206, B2 od 0279. Części Mszy: 1. Kyrie, 2. Et in terra, 3. Tollite portas, 4. Patrem, 5. Sanctus, 6. Benedictus, 7. Agnus Dei, 8. Dona
**kern	**text	**kern	**text	**kern	**text
*part3	*part3	*part2	*part2	*part1	*part1
*staff3	*staff3	*staff2	*staff2	*staff1	*staff1
*group1	*	*group1	*	*group1	*
*I"Basso II	*	*I"Alto. vel Basso I	*	*I"Soprano vel Tenore I.	*
*I'B II	*	*I'A vel B I	*	*I'S vel T I	*
*	*	*	*	*ITrd7c12	*
*clefF4	*	*clefF4	*	*clefG2	*
*k[f#c#]	*	*k[f#c#]	*	*k[f#c#]	*
*f#:	*	*f#:	*	*f#:	*
*M3/4	*	*M3/4	*	*M3/4	*
*all\right	*	*all\right	*	*all\right	*
=1	=1	=1	=1	=1	=1
*	*	*	*	*2\right	*
!LO:TX:a:t=2.	!	!LO:TX:b:t=1.	!	!LO:TX:a:t=Con moto	!
2.r	.	2.r	.	2d\	A-
.	.	.	.	4d\	-gnus
=2	=2	=2	=2	=2	=2
*	*	*	*	*^	*
*	*	*2\right	*	*	*	*
!	!	!	!	!LO:TX:t=P:problem:w drugim głosie partia A vel B I dopisana ołówkiem	!	!
2.r	.	2B\	A-	2.d\	2B\	Dei
.	.	4B\	-gnus	.	4B\	.
=3	=3	=3	=3	=3	=3	=3
(4G\	Ag-	[2.B\	De-	2.d\	[2.B\	de-
4F#\)	.	.	.	.	.	.
4E#X\	-nus	.	.	.	.	.
=4	=4	=4	=4	=4	=4	=4
[4F#\	De-	4B\]	.	2c#\	4B\]	-i,
4F#\]	-i	4A#X\	-i	.	4A#X\	.
4F#\	qui	4F#\	qui	4F#/	4F#\	qui
=5	=5	=5	=5	=5	=5	=5
4E\	tol-	4F#\	tol-	4G#X/	4F#\	tol-
4E\	-lis	4F#\	-lis	4A#X/	4F#\	-lis
4D\	pec-	4F#\	pec-	4B/	4F#\	pec-
!	!	!LO:LB:g=original	!	!LO:LB:g=original	!	!
=6	=6	=6	=6	=6	=6	=6
(4C#\	-ca-	(4E#X\	-ca-	2c#\	4E#X\	-ca-
4D#X\)	.	4F#\)	.	.	4F#\	.
4E#X\	-ta	4G#X\	-ta,	4B\	4G#X\	-ta
!LO:LB:g=original	!	!	!	!	!	!
=7	=7	=7	=7	=7	=7	=7
(4F#\	mun-	[4F#\	mun-	(<2A#X/	4F#\	mun-
*2\right	*	*	*	*	*	*
2C#\)	.	4F#\]	.	.	4F#\	.
.	.	4E#X\	.	4G#X/)	4E#X\	.
=8	=8	=8	=8	=8	=8	=8
4F#\	-di	4F#\	di,	4F#;/	4F#\	-di,
4r	.	4r	.	4F#/	4ryy	mi-
4rAA	.	4r	.	4F#/	4ryy	-se-
*	*	*	*	*v	*v	*
=9	=9	=9	=9	=9	=9
2.D\	mi-	2.An\	mi-	2.f#\	-re-
=10	=10	=10	=10	=10	=10
2.F#\	-sere-	2.A\	-se-	4d\	-re
.	.	.	.	4c#\	mi-
.	.	.	.	4d\	-se-
=11	=11	=11	=11	=11	=11
2.E\	-re	2.G#X\	-rere	(4e\	-re-
.	.	.	.	4B\)	.
.	.	.	.	4d\	-re
!	!	!	!	!LO:LB:g=original	!
=12	=12	=12	=12	=12	=12
(4AA\	no-	4A\	no-	4c#\	no-
4C#\	.	4A\	-bis	4A\	-bis,
4E\)	-bis	4r	.	4r	.
!	!	!LO:LB:g=original	!	!	!
=13	=13	=13	=13	=13	=13
!	!	!LO:TX:b:t=1.	!	!LO:TX:b:t=2.	!
!	!	!	!	!LO:N:vis=0	!
2A\	mi-	2.r	.	1.r	.
4A\	-se-	.	.	.	.
=14	=14	=14	=14	=14	=14
2.F#\	-re-	2A\	mi-	.	.
.	.	4A\	-se-	.	.
!LO:LB:g=original	!	!	!	!	!
=15	=15	=15	=15	=15	=15
2.F#\	-re	2.A\	-re-	2c#\	mi-
.	.	.	.	4c#\	-se-
=16	=16	=16	=16	=16	=16
(2E#X\	no-	2G#X\	-re-	(4c#\	-re-
.	.	.	.	4d\)	.
4F#\)	.	4A\	-e,	4c#\	-re
=17	=17	=17	=17	=17	=17
2.D\	.	2.F#\	no-	(4d\	no-
.	.	.	.	4A\	.
.	.	.	.	4d\)	.
=18	=18	=18	=18	=18	=18
4G\	.	2.G\	-bis	2.B\	-bis,
4D\	.	.	.	.	.
4G\	.	.	.	.	.
!	!	!	!	!LO:LB:g=original	!
=19	=19	=19	=19	=19	=19
2.E\	-bis	2.G\	no-	(4e\	no-
.	.	.	.	4B\	.
.	.	.	.	4e\)	.
=20	=20	=20	=20	=20	=20
(4AA#X/	no-	(4G\	.	(4c#\	-o-
4BB/	.	4F#\)	.	4d\	.
4E\)	-bis	4F#\	-bis	4c#\)	bis,
!	!	!LO:PB:g=original	!	!	!
=21	=21	=21	=21	=21	=21
2D\	mi-	2F#\	mi-	2B\	mi-
4D\	-se-	4F#\	-se-	4B\	-se-
!LO:LB:g=original	!	!	!	!	!
=22	=22	=22	=22	=22	=22
2D\	-re-	2F#\	-re-	2A/	-re-
4D\	-re	4F#\	-re	4B/	-re
=23	=23	=23	=23	=23	=23
2.C#X/	no-	2.E#X\	no-	2.c#\	no-
=24	=24	=24	=24	=24	=24
2C#/	-bis.	2E#X\	-bis.	2G#X/	-bis.
!	!	!	!	!LO:TX:b:t=V[olti]&colon; S[ubito]&colon;	!
4r;	.	4r;	.	4r;	.
==	==	==	==	==	==
*-	*-	*-	*-	*-	*-
!!!system-decoration: [g1]
!!!RDF**kern: > = above
!!!RDF**kern: < = below
!!!ENC: Andrzej Kubiczek
!!!END: 2021-03-26
!!!ENC: Krzysztof Stępień
!!!END: 2021-03-05
